X:1
T:Title
%%score ( 1 2 ) ( 3 4 )
L:1/8
Q:1/4=80
M:6/8
K:Ab
V:1 treble nm="Grand Piano, Unnamed-000"
V:2 treble 
V:3 bass nm="Choir Pad, Softly and Tenderly"
V:4 bass 
V:1
 [Ec]>[DB][CA] [EA][DG][CA] | [DB][DA][DF] [DF] [CE]2- | [CE][EA][EA] [EA][=Dc]>[DB] | %3
w: By~Will~Lamartine~Thompson,~1880 * * * * *|||
 [=DA] [EB]2- [EB]2- [EB]/ z/ | [Ec]>[DB][CA] [EA][DG][CA] | [DB][DA][DF] [DF] [CE]2- | %6
w: |||
 [CE][EA][EA] [Fd][Ec]>[CA] | [DB] [CA]2- [CA]2- [CA]/ z/ | z B2- B3 | .c3 [GB] c2- | %10
w: ||||
 c[GB][GB] B[=Ac]<[Ac] | [=A=d] [Ge]2 [_Ad] [B_d]2 | z [Ec]>[DB] [CA][EA][DG] | %13
w: |||
 [CA][DB][DA] [DF][DF][CE]- | [CE]2 [EA] [EA][Fd][Ec]- | [Ec]/[CA]/[DB][CA]- [CA]3- | [CA]3 z3 |] %17
w: ||||
V:2
 x6 | x6 | x6 | x6 | x6 | x6 | x6 | x6 | .E3 G G2 | z A2- A3- | A3 z3 | x6 | x6 | x6 | x6 | x6 | %16
 x6 |] %17
V:3
 [A,,A,]>[A,,A,][A,,A,] [C,A,][B,,E,][A,,E,] | [D,F,][D,F,][D,A,] [A,,A,] [A,,A,]2- | %2
 [A,,A,][A,C][A,C] [A,C][F,A,]>[F,A,] | [F,B,] [E,G,]2- [E,G,]2- [E,G,]/ z/ | %4
 [A,,A,]>[A,,A,][A,,A,] [C,A,][B,,E,][A,,E,] | [D,F,][D,F,][F,A,] [A,,A,] [A,,A,]2- | %6
 [A,,A,][C,A,][C,A,] [D,A,][E,A,]>[E,A,] | [E,G,] [A,,A,]2- [A,,A,]2- [A,,A,]/ z/ | %8
 z3 [E,D] [E,D]2 | E C2 [E,E] [A,E]2- | [A,E][B,E][B,E] [G,E][F,E]<[F,E] | B, B,2- [F,B,] [G,E]2 | %12
 z [A,,A,]>[A,,A,] [A,,A,][C,A,][B,,E,] | [A,,E,][D,F,][D,F,] [D,A,][A,,A,][A,,A,]- | %14
 [A,,A,]2 [C,A,] [C,A,][D,A,][E,A,]- | [E,A,]/[E,A,]/[E,G,][A,,A,]- [A,,A,]3- | [A,,A,]3 z3 |] %17
V:4
 x6 | x6 | x6 | x6 | x6 | x6 | x6 | x6 | x6 | x6 | x6 | z E,2 z3 | x6 | x6 | x6 | x6 | x6 |] %17

